X: 2147
T: Şedarabân Peşrev
C: Tanburî Cemil Bey
O: Turkey
F: http://compmusic.upf.edu/node/140
N: sedaraban--pesrev--fahte----tanburi_cemil_bey
N: makam= sedaraban
N: form= pesrev
N: usul= fahte = 20/4
M: 20/4
L: 1/16
K: C _7/8B _7/8e ^f ^c
Q: 1/4=76
%%MIDI tuningsystem comma53
c6{f}e2 d8  | d4 e2f2 e4 d4  | e3d c2d2 c2d2 B4  | \
w:  1. HANE  |   |   | 
c2d2 B2c2 d2e2 d2c2  | 
w:   | 
B3A G2d2 c4 d4  | d2z2 e2f2 e2d4e2  | \
w:   |   | 
dcB2 c2d2 c6B2  | d8 z4 e2f2  | 
w:   |   | 
d4 z4 e2f2 e2d2  | e2f2 g2a2 f4 {a}g4  | \
w:   |   | 
f6a2 g6f2  | g2{a}gf e2{f}ed =c4 f2ef  | 
w:   |   | 
g4 f2g2 a2b2 a2g2  | agfe defg e3g f4  | \
w:   |   | 
f3e d2e2 f2g2 a2b2  | 
w:   | 
(3a2g2a2 (3g2f2g2 (3f2e2f2 (3e2d2c2  | \
w:   | 
d4 a2g2 a2=c'2 b4  | a4 g4 f3e d2e2  | 
w:   |   | 
f2a2 g2f2 e3d c2d2  | c2f4ed {e}d4 z4  | \
w:   |   | 
G4 d4 d3=c Bcd^d  | 
w:  TESLİM  | 
=c2d4c2 e3d c4  | =c4 B2c2 d4 c2B2  | \
w:   |   | 
ede=f de=cd BcAB G2FA  | 
w:   | 
G4 D2G2 G4 d4  | z2=c^d =d2c2 B2A2 G2A2  | \
w:   |   | 
z2=F4D2 E2F2 E2D2  | 
w:   | 
A4 G2=F2 E4 D4  | =C4 D4 D4 EDE=F  | \
w:   |   | 
D12 z4  | c6e2 d8  | G4 d2e2 d4 c4  | 
w:   |  2. HANE  |   | 
B4 A4 G4 F4  | z2G4A2 B2c2 d2e2  | d2c2 B2A2 AGGF G4  | \
w:   |   |   | 
G2z2 d2e2 d4 c4  | 
w:   | 
B2c2 B2c2 d4 e2f2  | e3d c2d2 c2d2 e2{f}ed  | \
w:   |   | 
z2{e}d4e2 f2g2 a2b2  | 
w:   | 
a3g f2g2 f2a2 g4  | z2f4a2 g6f2  | g2{a}gf e2{f}ed =c4 f3a  | 
w:   |   |   | 
g4 f2g2 a2b4a2  | =c'6ba {b}a8  | g3a b2{=c'}ba a2{b}ag g2{a}gf  | 
w:   |   |   | 
f3e feed d2f4ed  | d4 a2g2 a2=c'2 b4  | \
w:   |   | 
a4 g4 f3e d2e2  | 
w:   | 
f2a2 g2f2 e3d c2d2  | c2f4ed {e}d4 z4  | \
w:   |   | 
G4 d4 d3=c Bcd^d  | 
w:  TESLİM  | 
=c2d4c2 e3d c4  | =c4 B2c2 d4 c2B2  | \
w:   |   | 
ede=f de=cd BcAB G2FA  | 
w:   | 
G4 D2G2 G4 d4  | z2=c^d =d2c2 B2A2 G2A2  | \
w:   |   | 
z2=F4D2 E2F2 E2D2  | 
w:   | 
A4 G2=F2 E4 D4  | =C4 D4 D4 EDE=F  | \
w:   |   | 
D12 z4  | f4 g4 g2a2 g2f2  | feed d=cc_1/4B c8  | 
w:   |  3. HANE  |   | 
z2=c4_1/4Bc d6cd  | e6de f3g fed2  | \
w:   |   | 
a2gf feed d4 z4  | 
w:   | 
f4 g4 g2a2 g2f2  | e3d =c4 d2=e2 {a}g2=f2  | \
w:   |   | 
=e2d4=c2 _1/4B3A G2e2  | d2z2 G2_1/4B2 A4 F2A2  | 
w:   |   | 
G2_1/4B4AG G8  | z2=c'2 b2a2 g3f =efga  | \
w:   |   | 
_7/8g2=g4f2 g3f =c'2=ba  | 
w:   | 
a4 a2=b2 =c'2ba d'4  | =c'_ba4g2 agf4e2  | \
w:   |   | 
f2g2 a2b2 g4 {a}=c'2b2  | 
w:   | 
a2g4f2 f3e agfe  | d4 a2g2 a2=c'2 b4  | \
w:   |   | 
a4 g4 f3e d2e2  | 
w:   | 
f2a2 g2f2 e3d c2d2  | c2f4ed {e}d4 z4  | \
w:   |   | 
G4 d4 d3=c Bcd^d  | 
w:  TESLİM  | 
=c2d4c2 e3d c4  | =c4 B2c2 d4 c2B2  | \
w:   |   | 
ede=f de=cd BcAB G2FA  | 
w:   | 
G4 D2G2 G4 d4  | z2=c^d =d2c2 B2A2 G2A2  | \
w:   |   | 
z2=F4D2 E2F2 E2D2  | 
w:   | 
A4 G2=F2 E4 D4  | =C4 D4 D4 EDE=F  | \
w:   |   | 
D12 z4  | |


